ncols 16
nrows 8
xllcorner 7.0
yllcorner 46.0
cellsize 0.125
NODATA_value -9999
400 700 1000 1300 1600 1900 2200 2500 2800 2500 2200 1900 1600 1300 1000 700
440 740 1040 1340 1640 1940 2240 2540 2840 2540 2240 1940 1640 1340 1040 740
480 780 1080 1380 1680 1980 2280 2580 2880 2580 2280 1980 1680 1380 1080 780
520 820 1120 1420 1720 2020 2320 2620 2920 2620 2320 2020 1720 1420 1120 820
560 860 1160 1460 1760 2060 2360 2660 2960 2660 2360 2060 1760 1460 1160 860
600 900 1200 1500 1800 2100 2400 2700 3000 2700 2400 2100 1800 1500 1200 900
640 940 1240 1540 1840 2140 2440 2740 3040 2740 2440 2140 1840 1540 -9999 -9999
680 980 1280 1580 1880 2180 2480 2780 3080 2780 2480 2180 1880 1580 -9999 -9999
